frontend/svgs/biz040.svg

<?xml version="1.0" encoding="UTF-8"?> <svg width="100px" height="100px" viewBox="0 0 100 100" version="1.1" xmlns="http://www.w3.org/2000/svg" xmlns:xlink="http://www.w3.org/1999/xlink"> <g id="40.-Сhess" stroke="none" stroke-width="1" fill="none" fill-rule="evenodd" stroke-linecap="round" stroke-linejoin="round"> <path d="M82.5970868,31.4470208 C82.1353355,29.4989006 80.7538942,27.8477601 78.9018055,27.0299172 L52.1299738,15.2041926 L55.8790554,4.78651113 C56.1781347,3.95613742 55.9159108,3.02969431 55.2241311,2.47165645 C54.5323514,1.91403628 53.5601319,1.84428154 52.7933706,2.29747846 L39.7770676,9.99723147 C33.3159384,13.8195402 28.3167393,19.4103612 25.3204394,26.1652926 C22.4262331,32.6888221 20.9206697,39.3276349 20.8448408,45.8975283 C20.7139407,57.2596136 23.2650107,65.5449722 25.1933519,70.1596446 L64.7184155,70.1596446 C64.7184155,70.1596446 65.7499425,62.1278257 63.9296257,58.9487641 L55.0161312,43.3813455 L56.2107538,43.7702177 C56.724611,43.9372949 57.2588022,44.0220866 57.7985005,44.0220866 C59.275681,44.0220866 60.6757617,43.3892817 61.6399323,42.2861545 C62.4270277,41.3851906 63.5712389,40.8680867 64.777723,40.8680867 C65.2343908,40.8680867 65.6863987,40.942436 66.1197672,41.0890463 L72.4978658,43.2455953 C73.1824439,43.4774149 73.8966757,43.594369 74.61938,43.594369 C76.4549473,43.594369 78.2172275,42.8279023 79.4542126,41.4904493 L81.5299753,39.245767 C82.9847037,37.6744059 83.5591392,35.4994784 83.0677342,33.427721 L82.5970868,31.4470208 Z" id="Layer-1" stroke="#576574" stroke-width="4" fill="#576574"></path> <path d="M23.1060148,76.88 C22.0840273,76.88 21.2552586,77.8163155 21.2552586,78.9709235 L21.2552586,85.3490765 L18.8507562,85.3490765 C17.8287686,85.3490765 17,86.285392 17,87.44 L17,95.9090765 C17,97.0636845 17.8287686,98 18.8507562,98 L70.8292438,98 C71.8516015,98 72.68,97.0636845 72.68,95.9090765 L72.68,87.44 C72.68,86.285392 71.8516015,85.3490765 70.8292438,85.3490765 L68.4247414,85.3490765 L68.4247414,78.9709235 C68.4247414,77.8163155 67.5963429,76.88 66.5739852,76.88 L23.1060148,76.88 Z" id="Layer-2" stroke="#485563" stroke-width="4" fill="#485563"></path> </g> </svg>

<svg width="100" height="100" xmlns="http://www.w3.org/2000/svg"><g fill="none" fill-rule="evenodd" stroke-linecap="round" stroke-linejoin="round" stroke-width="4"><path d="M82.597 31.447a6.506 6.506 0 00-3.695-4.417L52.13 15.204l3.75-10.417a2.07 2.07 0 00-.656-2.315 2.143 2.143 0 00-2.43-.175l-13.017 7.7c-6.461 3.823-11.46 9.413-14.457 16.168-2.894 6.524-4.4 13.163-4.475 19.733-.131 11.362 2.42 19.647 4.348 24.262h39.525s1.032-8.032-.788-11.211L55.016 43.38l1.195.39a5.127 5.127 0 001.588.251 5.097 5.097 0 003.84-1.736 4.182 4.182 0 014.48-1.197l6.379 2.157a6.6 6.6 0 006.956-1.755l2.076-2.245a6.384 6.384 0 001.538-5.818l-.47-1.981z" stroke="#576574" fill="#576574"/><path d="M23.106 76.88c-1.022 0-1.85.936-1.85 2.09v6.38H18.85c-1.022 0-1.851.935-1.851 2.09v8.47c0 1.154.829 2.09 1.85 2.09h51.98c1.022 0 1.85-.936 1.85-2.09v-8.47c0-1.155-.828-2.09-1.85-2.09h-2.405v-6.38c0-1.154-.829-2.09-1.851-2.09H23.106z" stroke="#485563" fill="#485563"/></g></svg>
